packages/foundations/assets/icons/functional/images/file/folder.svg

<svg xmlns="http://www.w3.org/2000/svg" width="32" height="32" fill="none"><path fill="#1A1C1F" fill-rule="evenodd" d="M5.261 5.098c-.694.168-1.479.74-1.824 1.33a5 5 0 0 0-.286.606l-.138.353-.015 8.4c-.011 5.902.002 8.503.043 8.746.142.846.756 1.691 1.519 2.089.751.393-.137.365 11.423.365 9.13 0 10.433-.01 10.712-.081 1.043-.267 1.826-1.019 2.192-2.106.093-.278.099-.632.114-6.667.018-7.045.03-6.771-.32-7.477-.229-.462-.861-1.09-1.321-1.313-.705-.341-.513-.33-5.703-.33h-4.72l-1.922-1.917c-1.286-1.283-1.988-1.945-2.12-2-.173-.072-.657-.082-3.76-.078-2.879.003-3.621.019-3.874.08m7.792 2.861c.535.535.974.991.974 1.014 0 .022-2.028.04-4.507.04H5.013v-.646c0-.568.015-.671.118-.856.127-.225.379-.409.648-.473.092-.022 1.547-.043 3.234-.046l3.066-.005zm13.374 3.143c.217.12.379.301.477.537.073.175.083.918.081 6.373-.001 5.875-.005 6.185-.099 6.39a1.05 1.05 0 0 1-.635.559c-.138.04-3.252.052-10.358.041-9.909-.015-10.165-.018-10.367-.118a1 1 0 0 1-.36-.344l-.153-.241V10.985l10.627.014c9.772.013 10.64.021 10.787.103"/></svg>

<svg width="32" height="32" viewBox="0 0 32 32" fill="none" xmlns="http://www.w3.org/2000/svg"><path d="M5.261 5.098 C 4.567 5.266,3.782 5.838,3.437 6.428 C 3.355 6.567,3.226 6.839,3.151 7.034 L 3.013 7.387 2.998 15.787 C 2.987 21.689,3.000 24.290,3.041 24.533 C 3.183 25.379,3.797 26.224,4.560 26.622 C 5.311 27.015,4.423 26.987,15.983 26.987 C 25.113 26.987,26.416 26.977,26.695 26.906 C 27.738 26.639,28.521 25.887,28.887 24.800 C 28.980 24.522,28.986 24.168,29.001 18.133 C 29.019 11.088,29.031 11.362,28.681 10.656 C 28.452 10.194,27.820 9.566,27.360 9.343 C 26.655 9.002,26.847 9.013,21.657 9.013 L 16.937 9.013 15.015 7.096 C 13.729 5.813,13.027 5.151,12.895 5.096 C 12.722 5.024,12.238 5.014,9.135 5.018 C 6.256 5.021,5.514 5.037,5.261 5.098 M13.053 7.959 C 13.588 8.494,14.027 8.950,14.027 8.973 C 14.027 8.995,11.999 9.013,9.520 9.013 L 5.013 9.013 5.013 8.367 C 5.013 7.799,5.028 7.696,5.131 7.511 C 5.258 7.286,5.510 7.102,5.779 7.038 C 5.871 7.016,7.326 6.995,9.013 6.992 L 12.079 6.987 13.053 7.959 M26.427 11.102 C 26.644 11.222,26.806 11.403,26.904 11.639 C 26.977 11.814,26.987 12.557,26.985 18.012 C 26.984 23.887,26.980 24.197,26.886 24.402 C 26.768 24.664,26.517 24.884,26.251 24.961 C 26.113 25.001,22.999 25.013,15.893 25.002 C 5.984 24.987,5.728 24.984,5.526 24.884 C 5.401 24.822,5.258 24.685,5.166 24.540 L 5.013 24.299 5.013 17.642 L 5.013 10.985 15.640 10.999 C 25.412 11.012,26.280 11.020,26.427 11.102 " fill="#1A1C1F" stroke="none" fill-rule="evenodd"></path></svg>
